Lila_HD/devices/scalable/camera-web-symbolic.svg

<?xml version="1.0" encoding="UTF-8"?>
<!-- Created with Inkscape (http://www.inkscape.org/) -->
<svg version="1.1" viewBox="0 0 16 16" xmlns="http://www.w3.org/2000/svg" xmlns:cc="http://creativecommons.org/ns#" xmlns:dc="http://purl.org/dc/elements/1.1/" xmlns:rdf="http://www.w3.org/1999/02/22-rdf-syntax-ns#">
<metadata>
<rdf:RDF>
<cc:Work rdf:about="">
<dc:format>image/svg+xml</dc:format>
<dc:type rdf:resource="http://purl.org/dc/dcmitype/StillImage"/>
<dc:title/>
</cc:Work>
</rdf:RDF>
</metadata>
<g transform="translate(9379.3 -4843.2)">
<path transform="translate(-9379.3 4843.2)" d="m8 1c-3.3137 0-6 2.6863-6 6 0 1.4815 0.54766 2.8283 1.4375 3.875l-1.4375 2.125v2h12v-2l-1.4375-2.125c0.88984-1.0467 1.4375-2.3935 1.4375-3.875 0-3.3137-2.6862-6-6-6zm0 3c2.2092 0 4 1.7909 4 4 0 2.2092-1.7908 4-4 4-2.2091 0-4-1.7908-4-4 0-2.2091 1.7909-4 4-4zm0 2c-1.1045 0-2 0.8955-2 2 0 1.1046 0.8955 2 2 2 1.1046 0 2-0.8954 2-2 0-1.1045-0.8954-2-2-2z" color="#000000" fill="#999" fill-opacity=".91237" style="block-progression:tb;text-indent:0;text-transform:none"/>
</g>
</svg>

<?xml version="1.0" encoding="UTF-8" standalone="no"?>
<!-- Created with Inkscape (http://www.inkscape.org/) -->

<svg
   xmlns:dc="http://purl.org/dc/elements/1.1/"
   xmlns:cc="http://creativecommons.org/ns#"
   xmlns:rdf="http://www.w3.org/1999/02/22-rdf-syntax-ns#"
   xmlns:svg="http://www.w3.org/2000/svg"
   xmlns="http://www.w3.org/2000/svg"
   xmlns:sodipodi="http://sodipodi.sourceforge.net/DTD/sodipodi-0.dtd"
   xmlns:inkscape="http://www.inkscape.org/namespaces/inkscape"
   width="15.999998"
   height="15.999998"
   id="svg13094"
   version="1.1"
   inkscape:version="0.48.3.1 r9886"
   sodipodi:docname="camera-web.svg">
  <sodipodi:namedview
     id="base"
     pagecolor="#ffffff"
     bordercolor="#666666"
     borderopacity="1.0"
     inkscape:pageopacity="0.0"
     inkscape:pageshadow="2"
     inkscape:zoom="45.254834"
     inkscape:cx="8.3961165"
     inkscape:cy="6.9768031"
     inkscape:document-units="px"
     inkscape:current-layer="layer1"
     showgrid="true"
     inkscape:snap-bbox="true"
     inkscape:bbox-paths="true"
     inkscape:bbox-nodes="true"
     inkscape:snap-bbox-edge-midpoints="true"
     inkscape:snap-bbox-midpoints="true"
     inkscape:object-paths="true"
     inkscape:snap-intersection-paths="true"
     inkscape:object-nodes="true"
     inkscape:snap-smooth-nodes="true"
     inkscape:snap-midpoints="true"
     inkscape:snap-object-midpoints="true"
     inkscape:snap-center="true"
     showguides="false"
     inkscape:guide-bbox="true"
     inkscape:window-width="1920"
     inkscape:window-height="1035"
     inkscape:window-x="-1"
     inkscape:window-y="23"
     inkscape:window-maximized="1"
     inkscape:snap-global="true"
     fit-margin-top="0"
     fit-margin-left="0"
     fit-margin-right="0"
     fit-margin-bottom="0"
     showborder="true"
     inkscape:showpageshadow="false">
    <sodipodi:guide
       orientation="0,1"
       position="-25.000005,930.61286"
       id="guide4700" />
    <sodipodi:guide
       orientation="0,1"
       position="576.71887,328.89388"
       id="guide4702" />
    <sodipodi:guide
       orientation="1,0"
       position="576.71899,489.70395"
       id="guide4706" />
    <sodipodi:guide
       orientation="1,0"
       position="54.999996,930.61286"
       id="guide4708" />
    <sodipodi:guide
       orientation="0,1"
       position="-25.000005,850.61296"
       id="guide4710" />
    <sodipodi:guide
       orientation="0,1"
       position="536.71887,408.8938"
       id="guide4712" />
    <sodipodi:guide
       orientation="1,0"
       position="496.71887,408.8938"
       id="guide4714" />
    <inkscape:grid
       type="xygrid"
       id="grid3216"
       empspacing="5"
       visible="true"
       enabled="true"
       snapvisiblegridlinesonly="true"
       originx="-24.999951px"
       originy="-219.00005px" />
    <sodipodi:guide
       orientation="-0.70710664,0.70710692"
       position="4.0000502,-246.00005"
       id="guide3847" />
    <sodipodi:guide
       orientation="0.70710594,0.70710762"
       position="5.0000502,-245.00005"
       id="guide3849" />
    <sodipodi:guide
       orientation="-0.70710681,0.70710676"
       position="7.0000502,-212.00005"
       id="guide3851" />
  </sodipodi:namedview>
  <defs
     id="defs13096" />
  <metadata
     id="metadata13099">
    <rdf:RDF>
      <cc:Work
         rdf:about="">
        <dc:format>image/svg+xml</dc:format>
        <dc:type
           rdf:resource="http://purl.org/dc/dcmitype/StillImage" />
        <dc:title />
      </cc:Work>
    </rdf:RDF>
  </metadata>
  <g
     transform="translate(9379.308,-4843.1988)"
     id="layer1"
     inkscape:groupmode="layer"
     inkscape:label="Camada 1">
    <path
       style="font-size:medium;font-style:normal;font-variant:normal;font-weight:normal;font-stretch:normal;text-indent:0;text-align:start;text-decoration:none;line-height:normal;letter-spacing:normal;word-spacing:normal;text-transform:none;direction:ltr;block-progression:tb;writing-mode:lr-tb;text-anchor:start;baseline-shift:baseline;color:#000000;fill:#999999;fill-opacity:0.912371168;stroke:none;stroke-width:57.8928833;marker:none;visibility:visible;display:inline;overflow:visible;enable-background:accumulate;font-family:Sans;-inkscape-font-specification:Sans"
       d="M 8 1 C 4.6863 1 2 3.6863 2 7 C 2 8.4814635 2.547664 9.8283163 3.4375 10.875 L 2 13 L 2 15 L 14 15 L 14 13 L 12.5625 10.875 C 13.452345 9.8283163 14 8.4814635 14 7 C 14 3.6863 11.3138 1 8 1 z M 8 4 C 10.2092 4 12 5.7909 12 8 C 12 10.2092 10.2092 12 8 12 C 5.7909 12 4 10.2092 4 8 C 4 5.7909 5.7909 4 8 4 z M 8 6 C 6.8955 6 6 6.8955 6 8 C 6 9.1046 6.8955 10 8 10 C 9.1046 10 10 9.1046 10 8 C 10 6.8955 9.1046 6 8 6 z "
       transform="translate(-9379.308,4843.1988)"
       id="path3775" />
  </g>
</svg>
